!!!!SEGMENT: Jom2011-Cantate_Domino.krn
!!!id: Jom2011
!!!AGN: Motet
!!!SCT: Sherr (1990)
!!!voices: 4
!!!COM: Jachet of Mantua
!!!OTL: Cantate Domino
**kern	**kern	**kern	**kern
*part4	*part3	*part2	*part1
*staff4	*staff3	*staff2	*staff1
*I"Bassus	*I"Tenor	*I"Altus	*I"Superius
*I'B	*I'T	*I'A	*I'S
*clefF4	*clefGv2	*clefGv2	*clefG2
*k[]	*k[]	*k[]	*k[]
*C:	*C:	*C:	*C:
*M2/1	*M2/1	*M2/1	*M2/1
*met(C|)	*met(C|)	*met(C|)	*met(C|)
!!section: Prima pars: Cantate Domino
!!!OMD: Prima pars: Cantate Domino
=1	=1	=1	=1
0r	0r	0r	1d
.	.	.	2.a
.	.	.	4a
=2	=2	=2	=2
0r	0r	0r	2g
.	.	.	2f
.	.	.	1e
=3	=3	=3	=3
0r	0r	1A	1cc
.	.	2.d	2b
.	.	.	[2a
.	.	4d	.
=4	=4	=4	=4
1r	0r	2c	2a]
.	.	2B	2g
1AA	.	1A	1a
=5	=5	=5	=5
2.D	0r	1f	2r
.	.	.	2d
4D	.	.	.
2C	.	2e	2.g
2BB	.	[2d	.
.	.	.	4g
=6	=6	=6	=6
1AA	1r	2d]	2f
.	.	2c	2e
1r	1D	1d	1d
=7	=7	=7	=7
1F	2.A	0r	0r
.	4A	.	.
2E	2G	.	.
[2D	2F	.	.
=8	=8	=8	=8
2D]	1E	0r	1r
2C	.	.	.
1D	1r	.	1d
=9	=9	=9	=9
0r	1c	1A	2.a
.	.	.	4a
.	2B	2.d	2g
.	[2A	.	2f
.	.	4d	.
=10	=10	=10	=10
1E	2A]	2c	1e
.	2G	2B	.
2.A	2A	1A	1cc
.	2A	.	.
4A	.	.	.
=11	=11	=11	=11
2G	2.d	2r	2b
2F	.	2D	1a
.	4d	.	.
1E	2c	2.G	.
.	2B	.	2g
.	.	4G	.
=12	=12	=12	=12
2r	1A	2F	0a
2AA	.	2E	.
2.D	2r	2D	.
.	2D	2f	.
4D	.	.	.
=13	=13	=13	=13
2C	2.G	2e	1r
2BB	.	1d	.
.	4G	.	.
1AA	2F	.	[1a
.	2E	2c	.
=14	=14	=14	=14
1.F	1D	1d	2a]
.	.	.	2a
.	1c	2.A	1a
2E	.	.	.
.	.	4G	.
=15	=15	=15	=15
2D	2B	2F	0dd
2C	1A	1E	.
1BB	.	.	.
.	2G#i	2D	.
=16	=16	=16	=16
1AA	1A	1E	1cc
1AA	1E	1c	1a
=17	=17	=17	=17
0GG	0G	0d	0b
=18	=18	=18	=18
[0AA	[0E	[0c	0a
=19	=19	=19	=19
0AA]	0E]	0c]	2r
.	.	.	1a
.	.	.	2e
=20	=20	=20	=20
0r	1r	2r	2g
.	.	1d	2f
.	2r	.	2d
.	[2A	2A	2f
=21	=21	=21	=21
0r	2A]	2c	1e
.	2E	2B	.
.	1G	2G	[1d
.	.	2B	.
=22	=22	=22	=22
2r	2F	1A	1d]
1D	2D	.	.
.	2r	1A	1r
2AA	[2A	.	.
=23	=23	=23	=23
1C	2A]	0r	0r
.	2E	.	.
2BB	1G	.	.
2GG	.	.	.
=24	=24	=24	=24
2BB	2F	1r	0r
2BB	2D	.	.
2AA	1F	2r	.
[2D	.	[2d	.
=25	=25	=25	=25
4D]	1F	2d]	2r
4C	.	.	.
4D	.	2A	1a
4C	.	.	.
1AA	[1E	1c	.
.	.	.	2e
=26	=26	=26	=26
1r	1E]	2B	1g
.	.	2G	.
2r	1r	2B-X	2f
[2D	.	2B-i	2d
=27	=27	=27	=27
2D]	2r	2A	1f
2AA	1A	2.c	.
1C	.	.	1e
.	.	4B	.
.	2E	[2G	.
=28	=28	=28	=28
2BB	1G	4G]	1d
.	.	4A	.
2GG	.	2.B	.
2BB	2F	.	2r
.	.	4A	.
2BB	2D	4F	[2d
.	.	4G	.
=29	=29	=29	=29
0AA	1F	0A	2d]
.	.	.	4c#i
.	.	.	4B
.	1E	.	1c#i
=30	=30	=30	=30
2r	1D	1B	1d
2GG	.	.	.
1D	1r	1A	2r
.	.	.	2d
=31	=31	=31	=31
1D	0r	1r	2.a
.	.	.	4a
1r	.	2r	2b
.	.	2G	2g
=32	=32	=32	=32
0r	2r	2.d	1a
.	2D	.	.
.	.	4d	.
.	2.A	2e	2cc
.	.	2c	2cc
.	4A	.	.
=33	=33	=33	=33
2r	2B	1d	1b
2GG	2G	.	.
2.D	1A	2f	1a
.	.	2f	.
4D	.	.	.
=34	=34	=34	=34
2E	2c	1e	1g
2C	2c	.	.
1D	1B	1d	2r
.	.	.	2d
=35	=35	=35	=35
2F	1A	1c	2.a
2F	.	.	.
.	.	.	4a
1E	1G	2r	2b
.	.	2G	2g
=36	=36	=36	=36
1D	2r	2.d	1a
.	2D	.	.
.	.	4d	.
1C	2.G	2e	2cc
.	.	2c	2cc
.	4A	.	.
=37	=37	=37	=37
2r	2B	1d	1b
2GG	2G	.	.
2.D	1A	1f	1a
4D	.	.	.
=38	=38	=38	=38
2E	1c	1e	1g
2C	.	.	.
1D	1B	1d	1r
=39	=39	=39	=39
1F	1A	1c	1r
1E	1G	2r	1g
.	.	2G	.
=40	=40	=40	=40
1D	1r	2A	1f
.	.	2F	.
1C	2r	2.G	1e
.	2c	.	.
.	.	4A	.
=41	=41	=41	=41
1G	2d	4B	2d
.	.	4c	.
.	2B	2d	2g
1F	2c	2A	2a
.	[2A	[2d	2f
=42	=42	=42	=42
1E	2A]	2d]	1g
.	2G	2c#i	.
[1D	[1A	1d	1f
=43	=43	=43	=43
1D]	1A]	2r	2r
.	.	2d	2d
1r	1r	2.c	2.g
.	.	4c	4g
=44	=44	=44	=44
2r	2r	2d	2f
2G	2G	2B	2g
2.F	2.c	1A	1a
4F	4c	.	.
=45	=45	=45	=45
2G	2B	0r	0r
2E	2c	.	.
1D	2d	.	.
.	[2d	.	.
=46	=46	=46	=46
2r	2d]	1r	0r
1A	2c	.	.
.	2A	2r	.
[2G	[2B	[2d	.
=47	=47	=47	=47
2G]	2B]	2d]	1r
2E	2c	1c	.
1F	1A	.	1a
.	.	2A	.
=48	=48	=48	=48
2G	0r	2B	1g
2E	.	2.c	.
1r	.	.	2e
.	.	4A	.
.	.	[2d	[2f
=49	=49	=49	=49
1r	2r	2d]	2f]
.	1d	2G	2g
2r	.	1A	1e
[2A	2c	.	.
=50	=50	=50	=50
2A]	2A	2r	0r
1G	1B	1d	.
2E	2c	[2c	.
=51	=51	=51	=51
1F	2A	2c]	1a
.	2c	2A	.
2G	2B	2B	1g
[2C	[2G	[2c	.
=52	=52	=52	=52
2C]	2G]	4c]	2e
.	.	4B	.
2.D	1d	1A	1f
8CL	.	.	.
8DJ	.	.	.
2E	4c	2G	2g
.	4B	.	.
=53	=53	=53	=53
2AA	1c	4A	2e
.	.	4B	.
1A	.	4c	1cc
.	.	4d	.
.	2r	4e	.
.	.	4f	.
2G	[2e	[2g	2b
=54	=54	=54	=54
2E	2e]	4g]	2g
.	.	4f	.
1G	2d	4g	2.b
.	.	4f	.
.	2B	2d	.
.	.	.	4a
2F	[2d	[2f	[2a
=55	=55	=55	=55
2D	4d]	2f]	2a]
.	4c	.	.
2E	2B	2e	2g#i
2AA	2A	2c	1a
2A	2c	[2e	.
=56	=56	=56	=56
2G	2B	4e]	1r
.	.	4d	.
2F	1A	1d	.
1E	.	.	2r
.	2G	2c#i	[2g
=57	=57	=57	=57
2.D	1A	2d	2g]
.	.	2A	2f
4C	.	.	.
2BB	2D	2B	2d
2AA	2A	[2c	[2e
=58	=58	=58	=58
2C	2G	2c]	4e]
.	.	.	4d
2D	2F	2B	1d
1AA	1E	1A	.
.	.	.	2c#i
=59	=59	=59	=59
1D	0D	2r	0d
.	.	2A	.
1r	.	2B	.
.	.	2A	.
=60	=60	=60	=60
2r	0r	1d	0r
2D	.	.	.
2E	.	2c	.
2D	.	4B	.
.	.	4A	.
=61	=61	=61	=61
1.G	1r	2B	2r
.	.	4G	2d
.	.	4A	.
.	2r	4B	2e
.	.	4c	.
2F	2A	[2d	2d
=62	=62	=62	=62
1E	2B	2d]	1g
.	2G	2c	.
1D	[1d	2r	1f
.	.	2A	.
=63	=63	=63	=63
0r	2d]	2B	2r
.	2c	2A	2e
.	1B-X	2d	2f
.	.	2d	2d
=64	=64	=64	=64
2r	1A	2c	1a
2D	.	2.f	.
2E	1r	.	1g
.	.	4e	.
2C	.	2e	.
=65	=65	=65	=65
1.G	1r	4d	2r
.	.	4c	.
.	.	4B	2d
.	.	4A	.
.	2r	4B	2e
.	.	4c	.
2F	2A	[2d	2d
=66	=66	=66	=66
1E	2B	2d]	2g
.	2G	2c	2g
1D	(1d	2r	1f
.	.	2A	.
=67	=67	=67	=67
2r	2d)	2B	0r
2AA	2c	2A	.
2BB	1B	1d	.
2GG	.	.	.
=68	=68	=68	=68
1.D	1A	2r	2r
.	.	4D	2a
.	.	4E	.
.	2r	4F	2b
.	.	4G	.
2C	2E	[2A	2a
=69	=69	=69	=69
1BB	2F	4A]	1dd
.	.	4G	.
.	2D	2G	.
1AA	2.A	2E	2.cc
.	.	4A	.
.	4G	4B	4b
=70	=70	=70	=70
1r	2F	4c	2a
.	.	4d	.
.	2E	2.e	2g
2r	1A	.	1f
.	.	4d	.
2D	.	2d	.
=71	=71	=71	=71
2E	2.G	2B	1e
2C	.	2c	.
.	4A	.	.
[1G	4B	2d	1r
.	4c	.	.
.	[2B	[2e	.
=72	=72	=72	=72
2G]	4B]	4e]	2r
.	4A	4d	.
2F	1A	1d	2d
1E	.	.	2.g
.	2G	2c	.
.	.	.	4g
=73	=73	=73	=73
1.D	2.A	1d	2.f
.	4G	.	4g
.	2F	2r	[1a
2C	2E	2A	.
=74	=74	=74	=74
2.D	2F	2d	0a]
.	4E	2d	.
4C	4D	.	.
[1AA	(1A	2.c	.
.	.	4d	.
=75	=75	=75	=75
2AA]	1A)	2e	2r
1D	.	1f	2d
.	1r	.	2g
2C	.	2e	2g
=76	=76	=76	=76
2.D	0r	2d	2.f
.	.	1f	.
4C	.	.	4g
1AA	.	.	2a
.	.	2e	[2cc
=77	=77	=77	=77
0r	0r	1d	2cc]
.	.	.	2b
.	.	2.f	2a
.	.	.	2cc
.	.	4e	.
=78	=78	=78	=78
0r	2r	2.d	2b
.	2D	.	1a
.	.	4c	.
.	2G	1B	.
.	2G	.	2g#i
=79	=79	=79	=79
1r	2.F	2A	2a
.	.	1d	4g
.	4G	.	4f
2r	[1A	.	1e
2AA	.	2c#i	.
=80	=80	=80	=80
2D	0A]	1d	1d
2D	.	.	.
2C	.	1r	1r
2D	.	.	.
=81	=81	=81	=81
2E	2r	0r	0r
1F	2D	.	.
.	2G	.	.
2E	2G	.	.
=82	=82	=82	=82
2D	2.F	0r	0r
1F	.	.	.
.	4G	.	.
.	2A	.	.
2E	[2c	.	.
=83	=83	=83	=83
1D	2c]	0r	0r
.	2B	.	.
2.F	2A	.	.
.	2c	.	.
4E	.	.	.
=84	=84	=84	=84
2D	2B	1r	0r
2C	1A	.	.
1BB	.	2r	.
.	2G#i	[2d	.
=85	=85	=85	=85
2AA	1A	2d]	0r
1A	.	2c	.
.	2r	2A	.
2G	[2e	2B	.
=86	=86	=86	=86
2E	2e]	2c	2r
2F	2d	2A	1dd
2G	2B	2G	.
2A	2c	2r	2cc
=87	=87	=87	=87
2D	2d	0r	2a
1r	2d	.	2b
.	2.A	.	2.cc
[2A	.	.	.
.	4B	.	4b
=88	=88	=88	=88
2A]	2c	2r	4a
.	.	.	4g
2G	2d	1g	2.b
2E	2e	.	.
.	.	.	4a
2F	4d	2f	[2a
.	4c	.	.
=89	=89	=89	=89
2G	1B	2d	2a]
2G	.	2e	2g#i
2.D	1A	2.f	1a
4E	.	4e	.
=90	=90	=90	=90
2F	1r	4d	0r
.	.	4c	.
2G	.	2.e	.
2A	2r	.	.
.	.	8dL	.
.	.	8cJ	.
4G	[2A	2d	.
4F	.	.	.
=91	=91	=91	=91
1E	2A]	2r	2r
.	2G	1e	1g
1r	2E	.	.
.	2F	2d	2f
=92	=92	=92	=92
1r	2G	2B	2d
.	2G	2c	2e
2r	2.D	2d	2.f
[2D	.	2d	.
.	4E	.	4e
=93	=93	=93	=93
2D]	2F	2A	4d
.	.	.	4c
2C	2G	1c	2.e
2AA	2A	.	.
.	.	.	8dL
.	.	.	8cJ
2BB	2D	2B	2d
=94	=94	=94	=94
2C	1E	2.G	2e
2C	.	.	2.g
.	.	4A	.
2.GG	2.G	[1B-X	.
.	.	.	4f
.	.	.	[2d
4AA	4F	.	.
=95	=95	=95	=95
2.BB	2.D	2B-]	4d]
.	.	.	4e
.	.	2B-i	1f
4C	4E	.	.
2D	2.F	2A	.
4C	.	[2A	4e
4BB	4G	.	4d
=96	=96	=96	=96
2AA	2A	2A]	2c
2BB	2D	2G	1d
1AA	1E	1A	.
.	.	.	2c#i
=	=	=	=
00D	00D	00A	00d
=||	=||	=||	=||
*M2/1	*M2/1	*M2/1	*M2/1
*met(C|)	*met(C|)	*met(C|)	*met(C|)
!!section: Secunda pars: Cantate ei et psallite
!!!OMD: Secunda pars: Cantate ei et psallite
0r	0r	0r	1a
.	.	.	2.g
.	.	.	4a
=97	=97	=97	=97
0r	0r	1r	1b
.	.	1d	1a
=98	=98	=98	=98
0r	1A	2.c	2r
.	.	.	2cc
.	.	4d	.
.	2.G	1e	2.b
.	4A	.	4cc
=99	=99	=99	=99
1r	1B	1d	0dd
1D	1A	2r	.
.	.	2f	.
=100	=100	=100	=100
2.C	2r	2.e	1r
.	2c	.	.
4D	.	4f	.
1E	2.B	1g	2r
.	.	.	2g
.	4c	.	.
=101	=101	=101	=101
1D	1d	2r	2.f
.	.	2d	.
.	.	.	4g
2r	1r	2.c	1a
2F	.	.	.
.	.	4d	.
=102	=102	=102	=102
2.E	2r	1e	[0g
.	2c	.	.
4F	.	.	.
[1G	2.B	2r	.
.	.	2d	.
.	4c	.	.
=103	=103	=103	=103
1G]	0d	2.B	1g]
.	.	4c	.
1D	.	2d	1f
.	.	2A	.
=104	=104	=104	=104
2.C	0G	1c	0g
4D	.	.	.
1E	.	1B	.
=105	=105	=105	=105
[0D	2.F	1r	2a
.	.	.	2a
.	4G	.	.
.	1A	2r	2.f
.	.	2A	.
.	.	.	4g
=106	=106	=106	=106
0D]	2r	2.F	4a
.	.	.	4g
.	2A	.	4f
.	.	4G	4e
.	2.F	2A	1f
.	.	2B	.
.	4G	.	.
=107	=107	=107	=107
0AA	1A	1c	[0e
.	1A	2r	.
.	.	2A	.
=108	=108	=108	=108
0r	0E	2B	1e]
.	.	2G	.
.	.	2B	2r
.	.	2c	2e
=109	=109	=109	=109
1r	0r	2d	2f
.	.	1d	2d
2r	.	.	2f
2E	.	2G	2g
=110	=110	=110	=110
2F	1r	2.d	1a
2D	.	.	.
.	.	4d	.
2F	2r	2c	1r
2G	2E	2B	.
=111	=111	=111	=111
1A	2F	1A	2r
.	2D	.	1a
1r	2F	2r	.
.	2G	2d	2d
=112	=112	=112	=112
2r	1A	2A	2.a
1D	.	2.d	.
.	.	.	4g
.	1r	.	2f
.	.	4d	.
2AA	.	2c	2e
=113	=113	=113	=113
2.D	2r	2B	1d
.	1A	1A	.
4D	.	.	.
2C	.	.	2r
2BB	2D	2G	2d
=114	=114	=114	=114
1AA	2.A	2.c	1e
.	4G	8BL	.
.	.	8cJ	.
2D	2F	2d	2d
2C	2E	2G	2e
=115	=115	=115	=115
1D	2D	2r	2f
.	2F	2d	1d
1AA	1E	2e	.
.	.	2e	2c#i
=116	=116	=116	=116
1D	0D	1f	1d
1r	.	1d	2r
.	.	.	2a
=117	=117	=117	=117
0r	0r	2r	2b
.	.	2.e	2b
.	.	.	1cc
.	.	4A	.
.	.	[2A	.
=118	=118	=118	=118
0r	0r	2A]	2a
.	.	2.d	2.b
.	.	4c	4a
.	.	4A	[2cc
.	.	4B	.
=119	=119	=119	=119
2r	0r	2c	4cc]
.	.	.	4b
2D	.	2d	1a
2E	.	1B	.
2E	.	.	2g#i
=120	=120	=120	=120
1F	2r	1A	1a
.	2A	.	.
2D	2B	1r	1r
[2E	2B	.	.
=121	=121	=121	=121
4E]	1c	0r	0r
4AA	.	.	.
1AA	.	.	.
.	2A	.	.
[2D	[2B	.	.
=122	=122	=122	=122
4D]	4B]	0r	0r
4C	4A	.	.
4AA	2.c	.	.
4BB	.	.	.
2C	.	.	.
.	4B	.	.
2D	[2A	.	.
=123	=123	=123	=123
1BB	2A]	0r	1r
.	2G#i	.	.
2AA	1A	.	1a
[2A	.	.	.
=124	=124	=124	=124
2A]	0r	1e	2e
2E	.	.	2.g
2.G	.	2B	.
.	.	.	4a
.	.	[2d	4d
4G	.	.	4e
=125	=125	=125	=125
1D	2r	4d]	4f
.	.	4d	4g
.	1A	2A	1a
1r	.	1c	.
.	2E	.	4g
.	.	.	4f
=126	=126	=126	=126
1r	2.G	2B	1g
.	.	1d	.
.	4G	.	.
1D	2D	.	2r
.	2F	2A	[2a
=127	=127	=127	=127
2AA	1E	2c	2a]
2.C	.	2c	2e
.	2r	4G	2.g
4C	.	4A	.
[2GG	[2G	4B	.
.	.	4c	4g
=128	=128	=128	=128
4GG]	2G]	2.d	1d
4AA	.	.	.
4BB	2D	.	.
4C	.	4c	.
2.D	2.F	1A	2r
.	.	.	[2a
4C	4F	.	.
=129	=129	=129	=129
4AA	2E	2r	2a]
4BB	.	.	.
4C	1A	1e	2e
4D	.	.	.
1E	.	.	2.g
.	2G	2B	.
.	.	.	4g
=130	=130	=130	=130
1D	[0A	2.d	2f
.	.	.	2d
.	.	4d	.
1r	.	4A	2e
.	.	4B	.
.	.	4c	[2cc
.	.	4d	.
=131	=131	=131	=131
2r	1A]	4e	4cc]
.	.	4c	4b
1D	.	2.d	4a
.	.	.	4g
.	1r	.	4f
.	.	4c	4g
2C	.	4A	[2a
.	.	4c	.
=132	=132	=132	=132
2D	1r	1B	2a]
2E	.	.	2g#i
[1F	2r	2r	1a
.	[2A	[2d	.
=133	=133	=133	=133
2F]	2A]	2d]	1r
2E	2G	2c	.
1D	2.A	1d	2r
.	.	.	[2a
.	4B	.	.
=134	=134	=134	=134
1C	1.c	1e	2a]
.	.	.	2g
[1F	.	[1f	2.a
.	2B	.	.
.	.	.	4b
=135	=135	=135	=135
0F_	2A	0f_	2.cc
.	4G	.	.
.	4F	.	4b
.	2.A	.	[1a
.	4B	.	.
=136	=136	=136	=136
1F]	0c	1f]	1a]
2.C	.	1e	2.g
8BBL	.	.	4e
8CJ	.	.	.
=137	=137	=137	=137
1D	2r	1d	1f
.	1A	.	.
2AA	.	1c	1e
[2C	2G	.	.
=138	=138	=138	=138
4C]	2.A	2r	1r
8BBL	.	.	.
8CJ	.	.	.
2D	.	1A	.
.	4B	.	.
2AA	[1c	.	2r
[2C	.	2G	[2e
=139	=139	=139	=139
4C]	2c]	2A	2e]
8BBL	.	.	.
8CJ	.	.	.
2D	2B	2B	2d
1AA	1A	[1c	2e
.	.	.	2f
=140	=140	=140	=140
2.C	2.G	2c]	2g
.	.	2B	1e
8BBL	4E	.	.
8CJ	.	.	.
1D	1F	[1A	.
.	.	.	2d
=141	=141	=141	=141
1AA	0E	1A]	[0e
1r	.	1G	.
=142	=142	=142	=142
1AA	2r	2r	0e]
.	2A	2c	.
2AA	2A	2c	.
2AA	2A	2c	.
=143	=143	=143	=143
1D	2.F	2.A	1r
.	4G	4B	.
[1C	2A	2.c	1e
.	[2G	.	.
.	.	4B	.
=144	=144	=144	=144
1C]	2G]	4c	2e
.	.	4d	.
.	4F	1e	2e
.	4E	.	.
1r	1F	.	1a
.	.	2d	.
=145	=145	=145	=145
1E	1E	2.e	0g
.	.	4d	.
2E	1r	2B	.
2E	.	[2c	.
=146	=146	=146	=146
1A	2r	2c]	0r
.	1e	4B	.
.	.	4A	.
1G	.	1B	.
.	2d	.	.
=147	=147	=147	=147
2r	2B	0r	0r
1A	2c	.	.
.	2A	.	.
2G	2B	.	.
=148	=148	=148	=148
2E	2G	1r	2r
2F	2A	.	1a
2D	1B	2r	.
2E	.	[2e	2g
=149	=149	=149	=149
2C	1A	2e]	2e
2.D	.	2d	2f
.	2r	2B	2d
4C	.	.	.
[2AA	[2A	2c	2e
=150	=150	=150	=150
2AA]	4A]	2A	2c
.	4G	.	.
2D	2F	2B	2d
2C	2E	2G	1e
2AA	[2A	2A	.
=151	=151	=151	=151
1E	2A]	2.B	0e
.	2G#i	.	.
.	.	8AL	.
.	.	8BJ	.
2r	1A	1c	.
[2A	.	.	.
=152	=152	=152	=152
2A]	2r	1B	0r
2G	1d	.	.
2F	.	1r	.
2E	2c	.	.
=153	=153	=153	=153
1D	2B	2r	0r
.	2A	1d	.
[1G	1G	.	.
.	.	2c	.
=154	=154	=154	=154
2G]	2r	2B	0r
2F	1d	2A	.
1E	.	1G	.
.	2c	.	.
=155	=155	=155	=155
0D	2B	1r	2r
.	2A	.	1a
.	2d	2r	.
.	[2D	[2d	2g
=156	=156	=156	=156
0C	2D]	2d]	2f
.	2E	2c	2e
.	1F	2B	1d
.	.	2A	.
=157	=157	=157	=157
0r	1G	0c	1.g
.	2E	.	.
.	2F	.	2f
=158	=158	=158	=158
1r	1.G	1c	1e
1GG	.	2B	[1d
.	4F	2G	.
.	4E	.	.
=159	=159	=159	=159
1GG	1D	2G	1d]
.	.	2G	.
1GG	2r	1d	1r
.	2D	.	.
=160	=160	=160	=160
1D	2D	2r	2r
.	2D	2d	2d
1D	[1A	2.f	2d
.	.	.	2d
.	.	4e	.
=161	=161	=161	=161
0F	2A]	2d	1a
.	2A	2.c	.
.	2.c	.	2r
.	.	4B	.
.	.	4A	2a
.	4B	4G	.
=162	=162	=162	=162
1.F	4A	2F	2.cc
.	4G	.	.
.	1F	2.A	.
.	.	.	4b
.	.	.	2a
.	.	4B	.
2E	2G	[2c	2g
=163	=163	=163	=163
1D	2A	2c]	1f
.	2F	2B	.
1C	[1G	1c	1e
=164	=164	=164	=164
1.D	2G]	1.A	1.f
.	4F	.	.
.	4E	.	.
.	2F	.	.
2GG	2G	2B	2d
=165	=165	=165	=165
0GG	2D	1B	1d
.	2.G	.	.
.	.	2.G	1r
.	4A	.	.
.	2B	.	.
.	.	4A	.
=166	=166	=166	=166
1G	2G	2B	2.d
.	2.B	2G	.
.	.	.	4e
1F	.	2A	2f
.	4A	.	.
.	[2A	[2d	2d
=167	=167	=167	=167
1E	2A]	2d]	1g
.	2G	2c#i	.
[1D	2A	[1d	2.f
.	[2F	.	.
.	.	.	4g
=168	=168	=168	=168
1D]	4F]	1d]	2a
.	4G	.	.
.	4A	.	2f
.	4F	.	.
2r	1G	2r	1b-i
2GG	.	2d	.
=169	=169	=169	=169
2.D	1A	2.f	1a
4E	.	4e	.
2F	1r	2d	1r
2E	.	2c	.
=170	=170	=170	=170
1D	2r	1d	2r
.	2D	.	2a
1r	2.A	1r	2.cc
.	4B	.	4b
=171	=171	=171	=171
2r	2c	2r	2a
2GG	2B	2d	2g
2.D	1A	2.f	1a
4E	.	4e	.
=172	=172	=172	=172
2F	2r	2d	2r
2E	2E	2c	1g
1D	2.A	1d	.
.	.	.	2f
.	4B	.	.
=173	=173	=173	=173
0r	2c	2r	2e
.	2B	1d	2d
.	1A	.	2.e
.	.	2c	.
.	.	.	4f
=174	=174	=174	=174
0r	1r	2B	2g
.	.	2A	1a
.	2r	2.B	.
.	[2d	.	2g
.	.	4c	.
=175	=175	=175	=175
0r	2d]	2d	2f
.	2c	2.e	2.g
.	1B	.	.
.	.	4d	4f
.	.	[2d	2d
=176	=176	=176	=176
0r	1A	2d]	1e
.	.	2c#i	.
.	2.B	2.d	1d
.	4c	4c	.
=177	=177	=177	=177
2r	2d	4B	0r
.	.	4A	.
1G	2.e	1B	.
.	4d	.	.
2F	[2d	[2A	.
=178	=178	=178	=178
1E	2d]	2A]	0r
.	2c	2G	.
1D	2B	2r	.
.	2A	[2d	.
=179	=179	=179	=179
2.E	2.G	2d]	0r
.	.	2c	.
4F	4A	.	.
2G	2B	2B	.
[2A	2c	2A	.
=180	=180	=180	=180
4A]	2.d	2.B	0r
4G	.	.	.
2G	.	.	.
.	4c	4c	.
2F	2A	2d	.
[2G	[2B	[2e	.
=181	=181	=181	=181
4G]	4B]	4e]	2r
4F	4A	4d	.
2D	2F	1d	2a
1E	1G	.	2g
.	.	2c#i	2e
=182	=182	=182	=182
2.D	2r	1d	2.f
.	2A	.	.
4C	.	.	4g
1AA	2A	1r	1a
.	2E	.	.
=183	=183	=183	=183
0r	2.F	2r	2.a
.	.	2d	.
.	4G	.	4g
.	1A	2c	2f
.	.	2A	2e
=184	=184	=184	=184
0r	0r	2.B	1d
.	.	4c	.
.	.	1d	1f
=185	=185	=185	=185
0r	2r	2.e	0e
.	2A	.	.
.	.	4d	.
.	2A	2c	.
.	2E	2B	.
=186	=186	=186	=186
0r	2.F	2A	2r
.	.	1d	2a
.	4G	.	.
.	1A	.	2a
.	.	2c	2e
=187	=187	=187	=187
2r	2.A	1d	2.f
2D	.	.	.
.	4G	.	4g
2D	2F	1r	1a
2AA	2E	.	.
=188	=188	=188	=188
2.BB	1D	2.d	0r
4C	.	4c	.
1D	1F	2B	.
.	.	2A	.
=189	=189	=189	=189
2.E	1E	0G	2.g
4D	.	.	4f
2C	1r	.	2e
2BB	.	.	2d
=190	=190	=190	=190
0AA	2.A	1r	0c
.	4G	.	.
.	2F	2.A	.
.	2E	.	.
.	.	4G	.
=191	=191	=191	=191
2.A	2.D	2.F	1r
4G	4E	4E	.
2.F	4F	1D	2.a
.	4G	.	.
.	[2A	.	.
4E	.	.	4g
=192	=192	=192	=192
1.D	4A]	0A	2.f
.	4G	.	.
.	1F	.	.
.	.	.	4e
.	.	.	2d
2C	2E	.	[2e
=193	=193	=193	=193
2BB-X	2F	1B	4e]
.	.	.	4d
2GG	2G	.	1d
1AA	1E	1A	.
.	.	.	2c#i
=194	=194	=194	=194
00Dl	00Dl	00Al	00dl
==	==	==	==
*-	*-	*-	*-
!!!system-decoration: [*]
!!!RDF**kern: i = editorial accidental
!!!RDF**kern: l = terminal long
!!!ENC: Benjamin Ory
!!!END: 2021/4/7
!!!EED: Benjamin Ory
!!!EEV: 2021/05/17
!!!YEC: Copyright 2021 Benjamin Ory, All Rights Reserved
!!!ONB: Translated from MusicXML on 2021/05/17
